svgs/thin/qrcode.svg

<svg xmlns="http://www.w3.org/2000/svg" viewBox="0 0 448 512"><!--! Font Awesome Pro 6.6.0 by @fontawesome - https://fontawesome.com License - https://fontawesome.com/license (Commercial License) Copyright 2024 Fonticons, Inc. --><path d="M144 48c17.7 0 32 14.3 32 32l0 96c0 17.7-14.3 32-32 32l-96 0c-17.7 0-32-14.3-32-32l0-96c0-17.7 14.3-32 32-32l96 0zM48 32C21.5 32 0 53.5 0 80l0 96c0 26.5 21.5 48 48 48l96 0c26.5 0 48-21.5 48-48l0-96c0-26.5-21.5-48-48-48L48 32zm96 272c17.7 0 32 14.3 32 32l0 96c0 17.7-14.3 32-32 32l-96 0c-17.7 0-32-14.3-32-32l0-96c0-17.7 14.3-32 32-32l96 0zM48 288c-26.5 0-48 21.5-48 48l0 96c0 26.5 21.5 48 48 48l96 0c26.5 0 48-21.5 48-48l0-96c0-26.5-21.5-48-48-48l-96 0zM304 48l96 0c17.7 0 32 14.3 32 32l0 96c0 17.7-14.3 32-32 32l-96 0c-17.7 0-32-14.3-32-32l0-96c0-17.7 14.3-32 32-32zM256 80l0 96c0 26.5 21.5 48 48 48l96 0c26.5 0 48-21.5 48-48l0-96c0-26.5-21.5-48-48-48l-96 0c-26.5 0-48 21.5-48 48zm0 216l0 176c0 4.4 3.6 8 8 8s8-3.6 8-8l0-168 32 0 0 104c0 4.4 3.6 8 8 8l48 0c4.4 0 8-3.6 8-8l0-104 32 0 0 104c0 4.4 3.6 8 8 8l32 0c4.4 0 8-3.6 8-8s-3.6-8-8-8l-24 0 0-104c0-4.4-3.6-8-8-8l-48 0c-4.4 0-8 3.6-8 8l0 104-32 0 0-104c0-4.4-3.6-8-8-8l-48 0c-4.4 0-8 3.6-8 8zm80-184l32 0 0 32-32 0 0-32zm-16 0l0 32c0 8.8 7.2 16 16 16l32 0c8.8 0 16-7.2 16-16l0-32c0-8.8-7.2-16-16-16l-32 0c-8.8 0-16 7.2-16 16zm-208 0l0 32-32 0 0-32 32 0zM80 96c-8.8 0-16 7.2-16 16l0 32c0 8.8 7.2 16 16 16l32 0c8.8 0 16-7.2 16-16l0-32c0-8.8-7.2-16-16-16L80 96zm0 272l32 0 0 32-32 0 0-32zm-16 0l0 32c0 8.8 7.2 16 16 16l32 0c8.8 0 16-7.2 16-16l0-32c0-8.8-7.2-16-16-16l-32 0c-8.8 0-16 7.2-16 16zm256 96a16 16 0 1 0 32 0 16 16 0 1 0 -32 0zm112-16a16 16 0 1 0 0 32 16 16 0 1 0 0-32z"/></svg>

<svg xmlns="http://www.w3.org/2000/svg" viewBox="0 0 448 512"><!--! Font Awesome Pro 6.4.0 by @fontawesome - https://fontawesome.com License - https://fontawesome.com/license (Commercial License) Copyright 2023 Fonticons, Inc. --><path d="M144 48c17.7 0 32 14.3 32 32v96c0 17.7-14.3 32-32 32H48c-17.7 0-32-14.3-32-32V80c0-17.7 14.3-32 32-32h96zM48 32C21.5 32 0 53.5 0 80v96c0 26.5 21.5 48 48 48h96c26.5 0 48-21.5 48-48V80c0-26.5-21.5-48-48-48H48zm96 272c17.7 0 32 14.3 32 32v96c0 17.7-14.3 32-32 32H48c-17.7 0-32-14.3-32-32V336c0-17.7 14.3-32 32-32h96zM48 288c-26.5 0-48 21.5-48 48v96c0 26.5 21.5 48 48 48h96c26.5 0 48-21.5 48-48V336c0-26.5-21.5-48-48-48H48zM304 48h96c17.7 0 32 14.3 32 32v96c0 17.7-14.3 32-32 32H304c-17.7 0-32-14.3-32-32V80c0-17.7 14.3-32 32-32zM256 80v96c0 26.5 21.5 48 48 48h96c26.5 0 48-21.5 48-48V80c0-26.5-21.5-48-48-48H304c-26.5 0-48 21.5-48 48zm0 216V472c0 4.4 3.6 8 8 8s8-3.6 8-8V304h32V408c0 4.4 3.6 8 8 8h48c4.4 0 8-3.6 8-8V304h32V408c0 4.4 3.6 8 8 8h32c4.4 0 8-3.6 8-8s-3.6-8-8-8H416V296c0-4.4-3.6-8-8-8H360c-4.4 0-8 3.6-8 8V400H320V296c0-4.4-3.6-8-8-8H264c-4.4 0-8 3.6-8 8zm80-184h32v32H336V112zm-16 0v32c0 8.8 7.2 16 16 16h32c8.8 0 16-7.2 16-16V112c0-8.8-7.2-16-16-16H336c-8.8 0-16 7.2-16 16zm-208 0v32H80V112h32zM80 96c-8.8 0-16 7.2-16 16v32c0 8.8 7.2 16 16 16h32c8.8 0 16-7.2 16-16V112c0-8.8-7.2-16-16-16H80zm0 272h32v32H80V368zm-16 0v32c0 8.8 7.2 16 16 16h32c8.8 0 16-7.2 16-16V368c0-8.8-7.2-16-16-16H80c-8.8 0-16 7.2-16 16zm256 96a16 16 0 1 0 32 0 16 16 0 1 0 -32 0zm112-16a16 16 0 1 0 0 32 16 16 0 1 0 0-32z"/></svg>
